X:1
T:The Black Joke
M:6/8
C:
S:Radford
N:
A:Adderbury
O:English
R:Jig
%
%:NoTeX
K:G
I:speed 600
P:A
%
|: D | D>GG G>FG     |\
       A>cB A>GF     | G>AB d>cB | A>cB A>GF | G>AB E>FG | D>EF G2   :|\
P:B
   A |\
       Bdd  d2d      | ede  d2c  | Bdd  d2d  | ede  d2c  | B>BB B>AG |\
       A>cB A>GF     | G>AB d>cB | A>cB A>GF | G>AB E>FG | D>EF G2   ||
